X:1
T:Psalm 126
T:A minor         Israel Holdroyd, 1722
T:William Whittingham, 1560 Old Version (Psalm 126)           12 12. 12 12. 10 10.                   
T:Transcribed from The Spiritual Man's Companion, 1724
T:No Copyright.  Transcribed from Suffolk Harmony, 1786.
T:No Copyright.  Transcribed from Suffolk Harmony, 1786.
Z:No Copyright.  Transcribed from Suffolk Harmony, 1786.
%%score [ 1 2 3 4 ]
L:1/8
Q:1/4=90
M:2/2
K:C
V:1 treble nm="Tr." snm="Tr."
V:2 treble nm="C." snm="C."
V:3 treble-8 nm="T." snm="T."
V:4 bass nm="B." snm="B."
V:1
"_1. When that the Lord again his Zion had        forth  brought      From   bondage  great, and   also         ser    –  vi  –  tude  extreme,  His work was such as did surmount man's heart" A4 A2 B2 | %1
 c4 B2 A2 | B2 A2 B2 c/B/A | A2 ^G6 | z2 B2 A2 ^G2 | A4 c2 B2 | A2 d2 ed c/B/A | ^G2 A6 | %8
 A4 A2 B2 | c4 B2 A2 | B2 A2 B2 c/B/A | %11
"_1. and  thought,       So   that   we  were  much like to them,  that   used       to dream:  Our mouths were all with laughter fil–led then,  Also  our tongues did show  us  joy – ful  men." A2 ^G6 | %12
 z2 B2 A2 ^G2 | A4 c2 B2 | A2 d2 ed c/B/A | ^G2 A6 | z2 A2 ^G2 A2 | B4 cB A2 | G2 G2 G4 | G8 | %20
 z2 G2 c2 c2 | B4 A2 ^G2 | cB A2 ^G4 | A8 |] %24
V:2
"_2. The heathen folk were for–ced  then this  to  con   –  fess,         How  that  the  Lord for them  al  –   so       great  things had  done:  But much more we, and therefore can confess" E4 E2 E2 | %1
 E4 G2 E2 | E2 E2 G2 G2 | F/E/D E6 | z2 ED CD E2 | E4 A2 G2 | A/G/F F2 E2 D/E/F | E2 E6 | %8
 E4 E2 E2 | E4 G2 E2 | E2 E2 G2 G2 | %11
"_2.  no      less;        Wherefore  to   joy we have great cause,  as   we            begun;      O Lord, go forth, thou canst our bondage end.  Who to deserts  dost flo – wing   ri – vers  send." F/E/D E6 | %12
 z2 ED CD E2 | E4 A2 G2 | A2 F2 E2 D/E/F | E2 E6 | z2 E2 E2 E2 | E4 ED CD | E2 D2 D4 | E8 | %20
 z2 E2 G2 E2 | E4 CD EF | G2 F2 E4 | E8 |] %24
V:3
"_3. Full true it is, that they that sow  in  tears     in    –    deed         A  time will come when they  shall    reap    in      mirth     and  joy:  They went and wept in hearing of their pre –" E4 A2 ^G2 | %1
 A4 B2 c2 | B2 c2 d2 c2 | BA B6 | z2 ^G2 A2 B2 | c4 e2 d2 | c2 BA ^G2 A/B/c | B2 A6 | E4 A2 ^G2 | %9
 A4 B2 c2 | B2 c2 d2 c2 | %11
"_3. –cious  seed,     For    that   their   foes full oftentimes  did     them         annoy:      But  their  return  they  joy–ful–ly shall see, Their sheaves bring home, and not im–pai–red be." BA B6 | %12
 z2 ^G2 A2 B2 | c4 e2 d2 | c2 BA ^G2 A/B/c | B2 A6 | z2 A2 B2 c2 | B4 ^G2 A2 | B2 c2 B4 | c8 | %20
 z2 c2 B2 A2 | ^G4 A2 B2 | e2 dc B4 | A8 |] %24
V:4
 A,,4 C,2 E,2 | A,,4 E,2 A,2 | ^G,2 A,2 =G,2 C,2 | D,/E,/F, E,6 | z2 E,2 F,2 E,D, | C,4 A,,2 B,,2 | %6
 C,2 D,2 E,2 F,D, | E,2 A,,6 | A,,4 C,2 E,2 | A,,4 G,2 A,2 | ^G,2 A,2 =G,2 C,2 | D,/E,/F, E,6 | %12
 z2 E,2 F,2 E,D, | C,4 A,,2 B,,2 | C,2 D,2 E,2 F,D, | E,2 A,,6 | z2 A,,2 E,2 A,2 | E,4 E,2 F,2 | %18
 E,F, G,2 G,,4 | C,8 | z2 C,2 G,2 A,2 | E,4 F,2 E,2 | C,2 D,2 E,4 | A,,8 |] %24

